X:58
T:The Grand Duke of Tuscany's March.
T:John Malchair's Third Collection of Tunes
%%VWML:Malchair-3619-p58
F:https://www.vwml.org/record/Malchair/3619/p58
F:www.vwml.org/topics/historic-dance-and-tune-books/Malchair
Z:Eric Conrad Jan 2020
M:C
L:1/8
K:D
A,2 | D2D>D D2F2 | E2D2 z2A,2 | F2F>F F2A2 | {A}G2F2 z2A2 |
B2G2 z2G2 | A2F2 z2DE | F2A2 G2F2 | {G}F2E2 z2A/G/F/E/ |
D2D2- DABA | A2G2 z2G/F/E/D/ | C2C2 EGAG | G2F2 z2A,2 |
D2D2 (3DEF (3EFG | F2F2 (3FGA (3GAB | B2A2 z2A2 | B2G2 z2G2 |
A2F2 G4 | A2d2 HB2 G/F/E/D/ | A,4 E4 | D6 |]
W:as played by a Savoyard on a barrill Organ in the Streets at Oxford. November 30 - 1734.
W:% Using this W: as a space between tunes
T:Minuet Della Cour.
T:John Malchair's Third Collection of Tunes
F:https://www.vwml.org/record/Malchair/3619/p58
F:www.vwml.org/topics/historic-dance-and-tune-books/Malchair
% Z:Eric Conrad Jan 2020
M:3/4
L:1/16
K:D
F4 FGFG A2A2 | A4 G4 F4 | D2F2D2F2D2F2 | G4 E8 |
F4 FGFG A2A2 | A4 G4 F4 | E2GE D4 C4 | D12 ||
E4 E2E2E2E2 | F4 {EF}D8 | F4 F2F2 A2F2 | {G}F4 {EF}E8 |
A4 A2A2A2A2 | B4 B2B2B2B2 | c4 c2c2c2c2 | d12 |
d6 B2c2A2 | d6 B2c2A2 | B4 A4 ^G4 | A6 A2B2A2 |
G2F2E2G2A2G2 | F2E2D2A2B2A2 | G2F2E2G2A2G2 | F2E2D2A2d2c2 |
B8 A4 | G8 F4 | E2F2 G4 F4 | F4 E8 |
F4 FGFG A2A2 | A4 G4 F4 | E2GE D4 C4 | D12 |]
W:playd by the Same Savoyard.

